imgs/cockade.svg

<svg width="101" height="134" viewBox="0 0 101 134" fill="none" xmlns="http://www.w3.org/2000/svg">
<path d="M16.4366 83.6572L0.178813 117.797C-0.108231 118.404 -0.0471186 119.119 0.343632 119.666C0.730679 120.212 1.37699 120.508 2.05664 120.432L17.5663 118.71L26.2091 132.536C26.5461 133.081 27.1406 133.408 27.7777 133.408C27.8073 133.408 27.8351 133.408 27.8666 133.407C28.5351 133.375 29.1351 132.983 29.4351 132.384L45.6985 99.8576C33.8371 98.6632 23.4072 92.5741 16.4366 83.6572Z" fill="#65E0BD"/>
<path d="M83.5646 83.6572L99.8224 117.799C100.109 118.406 100.048 119.121 99.6576 119.667C99.2705 120.214 98.6242 120.51 97.9446 120.434L82.4349 118.712L73.7921 132.538C73.4551 133.081 72.8606 133.408 72.2236 133.408C72.1939 133.408 72.1661 133.408 72.1347 133.407C71.4661 133.375 70.8661 132.983 70.5661 132.384L54.3027 99.8576C66.1641 98.6632 76.594 92.5741 83.5646 83.6572Z" fill="#65E0BD"/>
<path fill-rule="evenodd" clip-rule="evenodd" d="M15 58C15 38.7 30.7017 23 50 23C69.2983 23 85 38.7 85 58C85 77.3 69.2983 93 50 93C30.7017 93 15 77.3 15 58ZM40.2388 56.7401C42.0428 56.7401 43.1428 55.9481 43.1428 53.4841V51.7681C43.1428 48.9961 42.1748 48.2481 40.6348 48.2481C39.0948 48.2481 38.1268 49.0841 38.1268 51.2841V53.2641H33.5508V51.5921C33.5508 46.6641 36.0148 43.8481 40.7668 43.8481C45.5188 43.8481 47.9828 46.6641 47.9828 51.5921V52.3841C47.9828 55.6841 46.9268 57.7081 44.5948 58.6761V58.7641C47.0148 59.8201 47.9828 62.0641 47.9828 65.1881V67.6081C47.9828 72.5361 45.5188 75.3521 40.7668 75.3521C36.0148 75.3521 33.5508 72.5361 33.5508 67.6081V65.0561H38.1268V67.9161C38.1268 70.1161 39.0948 70.9521 40.6348 70.9521C42.1748 70.9521 43.1428 70.2041 43.1428 67.4761V65.0561C43.1428 62.1961 42.1748 61.1401 39.9748 61.1401H38.3468V56.7401H40.2388ZM58.2121 48.2481C56.6721 48.2481 55.7041 49.0841 55.7041 51.2841V67.9161C55.7041 70.1161 56.6721 70.9521 58.2121 70.9521C59.7521 70.9521 60.7201 70.1161 60.7201 67.9161V51.2841C60.7201 49.0841 59.7521 48.2481 58.2121 48.2481ZM58.2121 75.3521C53.4601 75.3521 50.8641 72.5361 50.8641 67.6081V51.5921C50.8641 46.6641 53.4601 43.8481 58.2121 43.8481C62.9641 43.8481 65.5601 46.6641 65.5601 51.5921V67.6081C65.5601 72.5361 62.9641 75.3521 58.2121 75.3521Z" fill="#08AE7E"/>
<path d="M28.25 13.59L27 10L25.75 13.59H22L25.0562 15.9825L23.855 19.68L27 17.395L30.145 19.68L28.9437 15.9825L32 13.59H28.25Z" fill="#65E0BD"/>
<path d="M52 5.744L50 0L48 5.744H42L46.89 9.572L44.968 15.488L50 11.832L55.032 15.488L53.11 9.572L58 5.744H52Z" fill="#65E0BD"/>
<path d="M73.25 14.7087L72 11L70.75 14.7087H67L70.0562 17.1803L68.855 21L72 18.6395L75.145 21L73.9437 17.1803L77 14.7087H73.25Z" fill="#65E0BD"/>
</svg>

<svg width="101" height="134" fill="none" xmlns="http://www.w3.org/2000/svg"><path d="M16.437 83.657L.179 117.797a1.852 1.852 0 00.165 1.869 1.837 1.837 0 001.713.766l15.51-1.722 8.642 13.826c.337.545.932.872 1.569.872l.089-.001a1.855 1.855 0 001.568-1.023L45.7 99.858c-11.862-1.195-22.292-7.284-29.262-16.2zm67.128 0L99.822 117.8a1.852 1.852 0 01-.164 1.868 1.835 1.835 0 01-1.713.767l-15.51-1.722-8.643 13.826c-.337.543-.931.87-1.568.87l-.09-.001a1.855 1.855 0 01-1.568-1.023L54.303 99.858c11.861-1.195 22.291-7.284 29.262-16.2z" fill="#65E0BD"/><path fill-rule="evenodd" clip-rule="evenodd" d="M15 58c0-19.3 15.702-35 35-35 19.298 0 35 15.7 35 35S69.298 93 50 93c-19.298 0-35-15.7-35-35zm25.239-1.26c1.804 0 2.904-.792 2.904-3.256v-1.716c0-2.772-.968-3.52-2.508-3.52s-2.508.836-2.508 3.036v1.98H33.55v-1.672c0-4.928 2.464-7.744 7.216-7.744 4.752 0 7.216 2.816 7.216 7.744v.792c0 3.3-1.056 5.324-3.388 6.292v.088c2.42 1.056 3.388 3.3 3.388 6.424v2.42c0 4.928-2.464 7.744-7.216 7.744-4.752 0-7.216-2.816-7.216-7.744v-2.552h4.576v2.86c0 2.2.968 3.036 2.508 3.036s2.508-.748 2.508-3.476v-2.42c0-2.86-.968-3.916-3.168-3.916h-1.628v-4.4h1.892zm17.973-8.492c-1.54 0-2.508.836-2.508 3.036v16.632c0 2.2.968 3.036 2.508 3.036s2.508-.836 2.508-3.036V51.284c0-2.2-.968-3.036-2.508-3.036zm0 27.104c-4.752 0-7.348-2.816-7.348-7.744V51.592c0-4.928 2.596-7.744 7.348-7.744s7.348 2.816 7.348 7.744v16.016c0 4.928-2.596 7.744-7.348 7.744z" fill="#08AE7E"/><path d="M28.25 13.59L27 10l-1.25 3.59H22l3.056 2.393-1.201 3.697L27 17.395l3.145 2.285-1.201-3.697L32 13.59h-3.75zM52 5.744L50 0l-2 5.744h-6l4.89 3.828-1.922 5.916L50 11.832l5.032 3.656-1.922-5.916L58 5.744h-6zm21.25 8.965L72 11l-1.25 3.709H67l3.056 2.471L68.855 21 72 18.64 75.145 21l-1.201-3.82L77 14.71h-3.75z" fill="#65E0BD"/></svg>
